X:1
T:Come, You Disconsolate
T:Text: st. 1-2, Thomas Moore, 1824; st. 1-2 rev. and st. 3, Thomas Hastings, 1831 Tune: arr. from Samuel Webbe, 1792
T:11 10 11 10 CONSOLATION www.hymnary.org/text/come_ye_disconsolate_whereer_ye_languish
T:Come, You Disconsolate
T:This hymn is in the public domain.  You may freely use this score for personal and congregational worship.  If you reproduce the score, please credit Hymnary.org as the source. 
T:This hymn is in the public domain.  You may freely use this score for personal and congregational worship.  If you reproduce the score, please credit Hymnary.org as the source. 
Z:This hymn is in the public domain.  You may freely use this score for personal and congregational worship.  If you reproduce the score, please credit Hymnary.org as the source.
%%score ( 1 2 ) ( 3 4 )
L:1/8
M:4/4
K:C
V:1 treble nm="SOPRANO ALTO" snm="S. A."
V:2 treble 
V:3 bass nm="TENOR BASS" snm="T. B."
V:4 bass 
V:1
"^C""^1""^2""^3" G4 E2 C2 |"^F" A3 G"^C" G4 |"^F" (F3 G) A2"^G7" B2 |"^C" c4 G4 | E4 E2 E2 | %5
w: Come, you dis-|con- so- late,|wher- * e'er you|lan- guish;|come to the|
w: Joy of the|des- o- late,|light * of the|stray- ing,|hope of the|
w: Here see the|bread of life;|see * wa- ters|flow- ing|forth from the|
"^F" F3 F A4 |"^G/D" G4"^D7" ^F2 F2 |"^G" G6 z2 |"^C" c4 B2 A2 | G3 F E4 | c4"^F" dc BA | %11
w: mer- cy seat,|fer- vent- ly|kneel.|Here bring your|wound- ed hearts,|here tell * your *|
w: pen- i- tent,|fade- less and|pure!|Here speaks the|Com- fort- er,|in mer- * cy *|
w: throne of God,|pure from a-|bove.|Come to the|feast pre- pared;|come, ev- * er *|
"^C" (G3 F) E4 |1 (G2 e2) e2 c2 |"^F" c2 A4 F2 |"^C/G" E4"^G7" D3 C |"^C" C8 |] %16
w: an- * guish;|earth * has no|sor- rows that|heaven can- not|heal.|
w: say- * ing,|"Earth * has no|sor- rows that|heaven can- not|cure."|
w: know- * ing|earth * has no|sor- rows but|heaven can re-|move.|
V:2
 C4 C2 C2 | C3 C C4 | C4 C2 F2 | E4 C4 | C4 C2 C2 | C3 C F4 | D4 C2 C2 | D6 x2 | E4 F2 F2 | %9
 E3 D C4 | E4 F2 F2 | (E3 D) C4 |1 (E2 G2) G2 E2 | F2 F4 D2 | C4 B,3 C | C8 |] %16
V:3
 E,4 G,2 E,2 | F,3 E, E,4 | C4 C2 G,2 | G,4 E,4 | G,4 G,2 G,2 | C3 C C4 | B,4 A,2 A,2 | G,6 z2 | %8
 G,4 G,2 A,B, | C3 G, G,4 | G,4 A,2 C2 | (C3 G,) G,4 |1 (G,2 C2) C2 G,2 | A,2 C4 A,2 | G,4 F,3 E, | %15
 E,8 |] %16
V:4
 C,4 C,2 C,2 | C,3 C, C,4 | (A,3 E,) F,2 D,2 | C,4 C,4 | C,4 C,2 _B,,2 | A,,3 A,, F,,4 | %6
 D,4 D,2 D,2 | G,,6 x2 | C,4 C,2 C,2 | C,3 C, C,4 | C,4 F,2 F,2 | C,4 C,4 |1 C,4 C,2 C,2 | %13
 F,2 F,4 F,2 | G,4 G,,3 C, | C,8 |] %16

